X:1
T:As the Dawn Was Breaking
T:As the Dawn Was Breaking
T:Rufus Buzzard
T:Rufus Buzzard, 1902
T:Public Domain Courtesy of the Cyber Hymnal™
T:Public Domain Courtesy of the Cyber Hymnal™
C:Rufus Buzzard
Z:Public Domain
Z:Courtesy of the Cyber Hymnal™
%%score ( 1 2 ) ( 3 4 )
L:1/8
Q:1/4=105
M:4/4
K:Ab
V:1 treble 
V:2 treble 
V:3 bass 
V:4 bass 
V:1
 [CE][CE] | [DF]2 [CE]2 [=B,=D]2 [CE]2 | [Ec]2 [Ec]4 [Ec][Ec] | [EB]2 [EB]2 [EA]2 [EB]2 | %4
w: 1.~As the|dawn was calm- ly|break- ing, On that|glor- ious Eas- ter|
w: 2.~Hark! the|ver- dant earth is|quak- ing, Un- der|Heav’n’s po- ten- tial|
w: 3.~As they|left in fear and|trem- bling, There was|one who lin- gered|
w: 4.~Hal- le-|lu- jah! Christ has|ris- en, Vic- tor|o’er that dark do-|
 [Ec]6 [Ec][EB] | [Ed]2 [EG]2 [EA]2 [EB]2 | [Ec]2 [CA]4 [CA][EA] | [EG]2 ([EB][EA]) [DG]2 [DF]2 | %8
w: day, The great|truth in mys- tery|shroud- ed, Proved a|blest re- * al- i-|
w: sway; For Je-|ho- vah’s faith- ful|an- gel Came and|rolled the * stone a-|
w: long, And she|stood and wept for|sor- row, Close be-|side that * va- cant|
w: main. Earth- ly|foes could not sub-|due Him, Tho’ His|bo- dy * they had|
 E6 [DE][DE] | [CE]2 [CE]2 [=B,=D]2 [CE]2 | [EA]2 [Ec]4 [Ec][Ec] | [FA]2 [=EG]2 [FA]2 [FB]2 | %12
w: ty. Je- sus|Christ the won- drous|Pro- phet Who had|died up- on the|
w: way. “He is|ris- en,” was the|mes- sage, And a-|gain the an- gel|
w: tomb. But her|tears to glad fru-|i- tion Changed, when|Je- sus met her|
w: slain. “I’m the|life and res- ur-|rec- tion,” Was the|say- ing that He|
 [=Ec]6 [_Ec][Ec] | [Ae]2 [Ae]2 [Ad]2 [Ae]2 | [Af]2 [FA]4 [EG][DF] | [CE]2 [Ec]2 [Ec]3 [DB] | %16
w: tree, Now had|van- quished death— vic-|tor- ious, And thus|set the cap- tive|
w: said, “Why come|ye to see the|liv- ing, Here a-|mong the si- lent|
w: there, For His|lov- ing voice so|gen- tle, Soon sub-|dued her vain des-|
w: kept; For from|death He rose vic-|tor- ious, The first|fruits of them that|
 [CA]6 z2 ||"^Refrain" [Ae]2 [Ae]>[Ae] [Ae][Ac][AB]A | e6 [GB][Ac] | [Gd]4- [Gd][GB][Ac][Bd] | %20
w: free.||||
w: dead?”|Oh, spread the mes- sage far and|wide: Je- sus|lives * and reigns on|
w: pair.||||
w: slept.||||
 [Ac]6 [Ec][Ed] | [Ae][Ae][Ae][A=d] [Ae]2 [Ac][_GA] | [FB][FB] [Fc]>[Fc] [Fd]2 [A=d][Ad] | %23
w: |||
w: high; He has|van- quished His last foe In His|earth- life here be- low And is|
w: |||
w: |||
 [Ae]<[Ge] [GB]>[Ac] [Gd]<[Gd] [Ac]>[GB] | [EA]6 |] %25
w: ||
w: com- ing soon, but ne- ver more to|die.|
w: ||
w: ||
V:2
 x2 | x8 | x8 | x8 | x8 | x8 | x8 | x8 | E6 x2 | x8 | x8 | x8 | x8 | x8 | x8 | x8 | x8 || x7 A | %18
 (GABA G2) x2 | x8 | x8 | x8 | x8 | x8 | x6 |] %25
V:3
 [A,,A,][A,,A,] | [A,,A,]2 [A,,A,]2 [A,,A,]2 [A,,A,]2 | [A,,A,]2 [A,,A,]4 [A,,A,][A,,A,] | %3
w: ~ ~|~ ~ ~ ~|~ ~ ~ ~|
 [E,G,]2 G,2 [C,A,]2 [E,G,]2 | A,6 [A,,A,][A,,A,] | [E,G,]2 [D,B,]2 [C,A,]2 [E,G,]2 | %6
w: ~ ~ ~ ~|~ ~ ~|~ ~ ~ ~|
 [A,,A,]2 [A,,E,]4 [A,,A,][A,,C] | [E,B,]2 (DC) [E,B,]2 [E,A,]2 | [E,G,]6 [E,G,][E,G,] | %9
w: ~ ~ ~ ~|~ ~ * ~ ~|~ ~ ~|
 [A,,A,]2 [A,,A,]2 [A,,A,]2 [A,,A,]2 | [A,,C]2 [A,,A,]4 A,A, | [F,C]2 [F,B,]2 [F,A,]2 [D,F,]2 | %12
w: ~ ~ ~ ~|~ ~ ~ ~|~ ~ ~ ~|
 [C,G,]6 A,A, | [A,C]2 [_G,C]2 [F,D]2 [E,C]2 | [D,D]2 [D,D]4 [D,A,][D,A,] | %15
w: ~ ~ ~|~ ~ ~ ~|~ ~ ~ ~|
 [E,A,]2 [E,A,]2 [E,G,]3 [E,G,] | [A,,A,]6 z2 || [A,C]2 [A,C]>[A,C] [A,C][A,E][A,D][A,C] | %18
w: ~ ~ ~ ~|~|~ ~ ~ ~ ~ ~ Yes,|
 B,CDC B,2 z2 | [E,E][E,E][G,E][B,E] [E,E][E,E][E,E][E,E] | [A,E]6 A,[A,B,] | %21
w: spread the joy- ful news,|Je- sus lives a- gain, * * *||
 [A,C][A,C][A,C][A,=B,] [A,C]2 [A,E][A,C] | [D,D][D,A,] [C,=A,]>[C,A,] [B,,B,]2 [B,,B,][B,,B,] | %23
w: ||
 [E,B,]<[E,B,] [E,E]>[E,E] [E,F]<[E,F] [E,E]>[E,D] | [A,,C]6 |] %25
w: ||
V:4
 x2 | x8 | x8 | x2 (E,D,) x4 | A,6 x2 | x8 | x8 | x2 E,2 x4 | x8 | x8 | x6 A,A, | x8 | x6 A,A, | %13
 x8 | x8 | x8 | x8 || x8 | E,6 x2 | x8 | x6 A, x | x8 | x8 | x8 | x6 |] %25

